frontend/public/svg/gender symbols/lesbian.svg

<svg width="120" height="125" viewBox="0 0 120 125" fill="none" xmlns="http://www.w3.org/2000/svg">
<g clip-path="url(#clip0)">
<path d="M79.2299 101.967H45.7903C45.7903 103.372 45.7494 104.44 45.7973 105.504C45.9778 109.539 46.2489 113.573 46.3539 117.61C46.4072 119.063 46.2333 120.515 45.8387 121.914C45.3287 123.62 44.1515 124.867 42.1634 124.802C41.3662 124.79 40.5956 124.513 39.9736 124.014C39.3515 123.516 38.9134 122.824 38.7285 122.048C38.3417 120.883 38.1007 119.675 38.0106 118.45C37.6825 113.199 37.4402 107.945 37.1396 102.153C35.5139 102.153 33.8876 102.194 32.2645 102.143C30.1333 102.077 27.9904 102.054 25.8796 101.794C23.5824 101.51 22.3945 100.192 22.447 98.3724C22.5001 96.494 23.6506 95.5679 26.2117 95.5292C29.6797 95.4773 33.1492 95.516 37.0249 95.516C37.2362 89.712 37.4377 84.1614 37.6537 78.2307C36.4723 78.0883 35.1793 77.8763 33.8804 77.7851C16.2183 76.5433 5.23031 65.4501 1.74319 48.9301C0.537638 43.6089 0.411463 38.0997 1.37207 32.729C2.33268 27.3582 4.36057 22.2348 7.33584 17.6614C8.55368 15.7743 10.0463 14.0793 11.7642 12.6325C18.1056 7.21687 25.8639 3.7279 34.1233 2.57685C42.7292 1.26418 50.8493 2.73306 58.793 5.85854C60.0624 6.35802 61.0625 6.85743 62.5419 6.10724C72.5681 1.02455 83.0406 0.367612 93.926 2.87811C100.924 4.34305 107.059 8.51773 110.991 14.4906C120.817 29.0574 121.685 44.401 114.404 60.1545C110.117 69.4273 102.13 74.1299 92.3632 76.0963C90.4959 76.4724 88.6123 76.7677 86.2645 77.1839C86.4824 82.7752 86.7017 88.4072 86.9379 94.4639C90.1875 94.141 93.0557 93.8286 95.9298 93.5831C97.1473 93.4381 98.3759 93.419 99.5967 93.526C100.394 93.572 101.15 93.8962 101.733 94.4409C102.317 94.9857 102.691 95.7169 102.792 96.5091C102.989 97.3459 102.867 98.2267 102.45 98.9789C102.034 99.731 101.352 100.301 100.538 100.578C99.0598 101.07 97.5142 101.327 95.956 101.34C93.183 101.455 90.4021 101.372 87.4676 101.372C87.6875 105.815 87.91 109.834 88.0734 113.857C88.1797 115.649 88.1824 117.446 88.08 119.239C87.8581 122.147 86.3853 123.961 84.3388 124.128C82.1388 124.309 80.3221 122.607 79.9657 119.497C79.5443 115.821 79.4156 112.112 79.2483 108.413C79.1518 106.308 79.2299 104.193 79.2299 101.967ZM53.9788 68.5445C39.2768 50.4296 38.7228 31.9208 52.1784 12.6901C50.1647 12.1191 48.2802 11.4603 46.3427 11.0573C37.6902 9.25762 29.2898 9.34701 21.3225 13.9808C16.5069 16.7814 12.747 20.37 10.4275 25.4875C5.15512 37.1112 6.87841 48.2534 12.7901 59.0213C15.3836 63.6984 19.6147 67.2515 24.6699 68.9974C34.3778 72.5573 44.0438 71.6293 53.9788 68.5445ZM67.4992 68.5537C68.2238 68.8635 68.9648 69.1339 69.7183 69.3623C78.7186 71.5846 87.5437 70.755 96.1687 67.604C100.548 66.0018 104.168 62.817 106.315 58.6777C112.399 47.4543 112.332 30.8221 103.707 19.4859C100.755 15.4855 96.5415 12.5956 91.7463 11.2816C86.2324 9.75663 80.5085 9.13219 74.7957 9.4322C71.8172 9.56347 69.3428 10.548 66.705 11.7556C81.0893 29.0403 80.2275 53.7427 67.4998 68.5504L67.4992 68.5537ZM58.4587 16.7032C45.2991 27.158 46.6081 56.4568 60.3781 64.3886C70.6791 56.1332 73.0584 29.0717 58.4594 16.699L58.4587 16.7032ZM79.1794 94.0668V77.5974C78.8505 77.4792 78.5086 77.3972 78.1614 77.3545C72.6573 77.1307 67.2353 75.9414 62.1429 73.8411C61.2897 73.4749 60.0194 73.8556 59.008 74.1319C55.7736 75.0147 52.5819 76.053 49.3501 76.945C47.7684 77.3814 46.1342 77.6275 44.3936 77.9859C44.662 83.5385 44.9184 88.8398 45.1698 94.0662L79.1794 94.0668Z" fill="black"/>
</g>
<defs>
<clipPath id="clip0">
<rect width="119.453" height="124.048" fill="white" transform="translate(0.410645 0.941895)"/>
</clipPath>
</defs>
</svg>

<svg xmlns="http://www.w3.org/2000/svg" width="120" height="125" fill="none" viewBox="0 0 120 125"><g clip-path="url(#a)"><path fill="#000" d="M79.23 101.967H45.79c0 1.405-.04 2.473.007 3.537.18 4.035.452 8.069.557 12.106a14 14 0 0 1-.515 4.304c-.51 1.706-1.687 2.953-3.676 2.888a3.585 3.585 0 0 1-3.434-2.754 15 15 0 0 1-.718-3.598c-.329-5.251-.57-10.505-.871-16.297-1.626 0-3.252.041-4.876-.01-2.13-.066-4.274-.089-6.384-.349-2.298-.284-3.485-1.602-3.433-3.422.053-1.878 1.204-2.804 3.765-2.843 3.468-.052 6.937-.013 10.813-.013l.629-17.285c-1.182-.143-2.475-.355-3.774-.446C16.218 76.543 5.23 65.45 1.743 48.93a40.8 40.8 0 0 1 5.593-31.269 22.6 22.6 0 0 1 4.428-5.029 43.7 43.7 0 0 1 22.36-10.055c8.605-1.313 16.725.156 24.669 3.282 1.27.499 2.27.998 3.749.248C72.568 1.025 83.04.367 93.926 2.878a27.07 27.07 0 0 1 17.065 11.613c9.826 14.566 10.694 29.91 3.413 45.664-4.287 9.272-12.274 13.975-22.04 15.941-1.868.376-3.752.672-6.1 1.088l.674 17.28c3.25-.323 6.118-.635 8.992-.88a18 18 0 0 1 3.667-.058 3.42 3.42 0 0 1 3.195 2.983 3.46 3.46 0 0 1-2.254 4.069 14.9 14.9 0 0 1-4.582.762c-2.773.115-5.554.032-8.488.032.22 4.443.442 8.462.605 12.485.107 1.792.11 3.589.007 5.382-.222 2.908-1.695 4.722-3.741 4.889-2.2.181-4.017-1.521-4.373-4.631-.422-3.676-.55-7.385-.718-11.084-.096-2.105-.018-4.22-.018-6.446M53.979 68.545C39.277 50.43 38.723 31.92 52.179 12.69c-2.014-.57-3.899-1.23-5.836-1.633-8.653-1.8-17.053-1.71-25.02 2.924-4.816 2.8-8.576 6.389-10.895 11.507C5.155 37.11 6.878 48.253 12.79 59.02a21.67 21.67 0 0 0 11.88 9.976c9.708 3.56 19.374 2.632 29.309-.453m13.52.009q1.088.466 2.22.808c9 2.223 17.825 1.393 26.45-1.758a18.65 18.65 0 0 0 10.146-8.926c6.084-11.224 6.017-27.856-2.608-39.192-2.952-4-7.165-6.89-11.96-8.204a53.1 53.1 0 0 0-16.951-1.85c-2.979.131-5.453 1.116-8.091 2.324C81.089 29.04 80.228 53.743 67.5 68.55zm-9.04-51.85c-13.16 10.454-11.85 39.753 1.92 47.685 10.3-8.256 12.68-35.317-1.92-47.69zm20.72 77.363v-16.47q-.495-.178-1.018-.242a47 47 0 0 1-16.018-3.514c-.853-.366-2.124.015-3.135.29-3.234.884-6.426 1.922-9.658 2.814-1.582.436-3.216.683-4.956 1.04l.776 16.081z"/></g><defs><clipPath id="a"><path fill="#fff" d="M.41.942h119.454V124.99H.41z"/></clipPath></defs></svg>
